img/arrow-right.svg

<svg width="36" height="36" viewBox="0 0 36 36" fill="none" xmlns="http://www.w3.org/2000/svg">
<g clip-path="url(#clip0)">
<path d="M36 18.0002C36 18.3047 35.7529 18.5518 35.4484 18.5518L0.551572 18.5518C0.247104 18.5518 -1.21547e-08 18.3047 -2.71311e-08 18.0002C-4.21075e-08 17.6957 0.247104 17.4486 0.551572 17.4486L35.4484 17.4486C35.7529 17.4486 36 17.6957 36 18.0002Z" fill="#CE1257"/>
<path d="M35.9999 18.0023C35.9999 18.149 35.9415 18.2891 35.8389 18.3928L22.0088 32.2185C21.7937 32.4337 21.444 32.4337 21.2288 32.2185C21.0137 32.0034 21.0137 31.6537 21.2288 31.4386L34.6684 18.0034L21.2288 4.56273C21.0137 4.34761 21.0137 3.99792 21.2288 3.7828C21.444 3.56769 21.7936 3.56769 22.0088 3.7828L35.8378 17.6129C35.9415 17.7166 35.9999 17.8556 35.9999 18.0023Z" fill="#CE1257"/>
</g>
<defs>
<clipPath id="clip0">
<rect width="36" height="36" fill="white" transform="translate(0 36) rotate(-90)"/>
</clipPath>
</defs>
</svg>

<svg width="36" height="36" viewBox="0 0 36 36" fill="none" xmlns="http://www.w3.org/2000/svg"><g clip-path="url(#a)" fill="#CE1257"><path d="M36 18a.552.552 0 0 1-.552.552H.552a.552.552 0 0 1 0-1.103h34.896c.305 0 .552.247.552.551z"/><path d="M36 18.002a.555.555 0 0 1-.161.39l-13.83 13.826a.552.552 0 0 1-.78-.78l13.44-13.435-13.44-13.44a.552.552 0 0 1 .78-.78l13.829 13.83a.55.55 0 0 1 .162.39z"/></g><defs><clipPath id="a"><path fill="#fff" transform="rotate(-90 18 18)" d="M0 0h36v36H0z"/></clipPath></defs></svg>
